dist/assets/img/stages/2.svg

<svg width="310" height="365" viewBox="0 0 310 365" fill="none" xmlns="http://www.w3.org/2000/svg">
<path d="M1.38044 354.317C55.9847 313.366 98.3183 278.943 128.381 251.049C159.058 223.154 181.145 197.931 194.643 175.378C208.754 152.825 215.81 130.569 215.81 108.61C215.81 83.6829 207.834 64.0976 191.882 49.8537C175.93 35.0163 155.683 27.5975 131.142 27.5975C106.601 27.5975 85.1274 36.7968 66.7215 55.1951C48.3156 73 34.2043 99.7073 24.3879 135.317C24.3879 135.911 23.1608 136.207 20.7067 136.207C15.1849 136.207 12.7308 135.02 13.3443 132.646L48.3156 1.78045C48.3156 0.593459 49.5426 0 51.9967 0C53.8373 0 55.3712 0.593459 56.5982 1.78045C58.4388 2.37396 59.0523 2.96746 58.4388 3.56095C57.8253 5.93494 57.5185 8.90244 57.5185 12.4634C57.5185 21.9593 62.12 26.7073 71.323 26.7073C76.8447 26.7073 86.0477 24.6301 98.9319 20.4756C108.135 18.1016 118.565 15.7276 130.222 13.3536C141.879 10.9796 153.229 9.79268 164.273 9.79268C194.949 9.79268 219.184 18.1016 236.976 34.7195C255.382 50.7439 264.585 72.1098 264.585 98.8171C264.585 118.996 258.143 139.175 245.259 159.354C232.988 179.533 212.742 202.382 184.519 227.902C156.297 253.423 117.031 284.878 66.7215 322.268C64.2674 324.049 63.3471 325.533 63.9606 326.719C65.1877 327.906 67.335 328.5 70.4027 328.5C142.186 328.5 191.268 327.61 217.65 325.829C244.645 323.455 263.665 318.411 274.708 310.695C285.752 302.386 293.728 287.845 298.636 267.073C299.25 265.886 301.09 265.589 304.158 266.183C307.839 266.183 309.68 266.776 309.68 267.963L296.796 355.207C296.796 357.581 295.875 359.955 294.035 362.329C292.808 364.11 290.967 365 288.513 365H7.82252C5.3684 365 3.22104 363.813 1.38044 361.439C-0.460148 359.065 -0.460148 356.691 1.38044 354.317Z" fill="#FF3D00" fill-opacity="0.2"/>
</svg>

<svg width="310" height="365" viewBox="0 0 310 365" fill="none" xmlns="http://www.w3.org/2000/svg"><path d="M1.38 354.317c54.605-40.951 96.938-75.374 127.001-103.268 30.677-27.895 52.764-53.118 66.262-75.671 14.111-22.553 21.167-44.809 21.167-66.768 0-24.927-7.976-44.512-23.928-58.756-15.952-14.838-36.199-22.256-60.74-22.256-24.541 0-46.015 9.199-64.42 27.597C48.316 73 34.204 99.707 24.388 135.317c0 .594-1.227.89-3.681.89-5.522 0-7.976-1.187-7.363-3.561L48.316 1.78c0-1.187 1.227-1.78 3.68-1.78 1.841 0 3.375.593 4.602 1.78 1.84.594 2.454 1.187 1.84 1.781-.613 2.374-.92 5.341-.92 8.902 0 9.496 4.602 14.244 13.805 14.244 5.522 0 14.725-2.077 27.609-6.231 9.203-2.374 19.633-4.748 31.29-7.122 11.657-2.374 23.007-3.561 34.051-3.561 30.676 0 54.911 8.309 72.703 24.926 18.406 16.025 27.609 37.39 27.609 64.098 0 20.179-6.442 40.358-19.326 60.537-12.271 20.179-32.517 43.028-60.74 68.548-28.222 25.521-67.488 56.976-117.797 94.366-2.455 1.781-3.375 3.265-2.761 4.451 1.227 1.187 3.374 1.781 6.442 1.781 71.783 0 120.865-.89 147.247-2.671 26.995-2.374 46.015-7.418 57.058-15.134 11.044-8.309 19.02-22.85 23.928-43.622.614-1.187 2.454-1.484 5.522-.89 3.681 0 5.522.593 5.522 1.78l-12.884 87.244c0 2.374-.921 4.748-2.761 7.122-1.227 1.781-3.068 2.671-5.522 2.671H7.823c-2.455 0-4.602-1.187-6.443-3.561-1.84-2.374-1.84-4.748 0-7.122z" fill="#FF3D00" fill-opacity=".2"/></svg>
